X:1
T: Miss Cunningham of Lainshaw's Favourite					
M: C|
B: James Campbell's Collection 1798
Z: source from Highland Music Trust, chords by Gary Whaley
L: 1/8
K:Bb
(fe) [|: "Bb" (de)fB "F"(AB)"C7"cd | "F"ec"C7"dB "F"{B}A2 (GF) | "Eb"G(ee)G "Bb"F(dd)B| "Eb"ge"C7"cB"F"{B}A (fe) |
"Bb" (de)fB "F"(AB)cd |"Eb/G"efga "F"(ba)(gf) |"Gm"(gb)(gb) "C7" (=eg)(eg) | "F" f2 f2 f2 :|]
(fe) [|: "Bb"(de)(fg) (_ag)(_ag) | "Eb"geBG E2 (gf)|"C7"(=ef)(ga) (ba)(bg)|"F" (af)(cA) F3 E |
|"Bb" DB,DF BFDF |"Eb"GEGB "Bb/F"efcB | "Eb" Agfe "F"dcBA |"Bb" B2 B2 B2 :|]